img/svg/user-ico-rect.svg

<svg width="46" height="46" viewBox="0 0 46 46" fill="none" xmlns="http://www.w3.org/2000/svg">
<rect width="46" height="46" fill="#4C51CC"/>
<path d="M31.9544 29.4238C31.8752 29.0437 31.5029 28.7997 31.1227 28.8788C30.7425 28.9579 30.4985 29.3303 30.5776 29.7104C30.6232 29.9294 30.5689 30.1539 30.4287 30.3264C30.3475 30.4262 30.1664 30.5938 29.8662 30.5938H16.1337C15.8336 30.5938 15.6525 30.4262 15.5713 30.3264C15.431 30.1539 15.3767 29.9294 15.4223 29.7104C16.152 26.2055 19.2435 23.6453 22.8136 23.5589C22.8754 23.5613 22.9375 23.5625 23 23.5625C23.0626 23.5625 23.125 23.5613 23.1871 23.5589C25.7019 23.6192 28.0263 24.893 29.4339 26.9922C29.6501 27.3148 30.0869 27.4009 30.4095 27.1847C30.732 26.9684 30.8182 26.5317 30.6019 26.2091C29.4482 24.4884 27.7729 23.2372 25.8627 22.6085C27.0267 21.7356 27.7812 20.3449 27.7812 18.7812C27.7812 16.1449 25.6364 14 23 14C20.3636 14 18.2187 16.1449 18.2187 18.7812C18.2187 20.3458 18.9742 21.7373 20.1394 22.6102C19.0718 22.9616 18.07 23.5086 17.1932 24.2298C15.5855 25.5522 14.4676 27.3969 14.0456 29.4238C13.9134 30.059 14.0718 30.7113 14.4803 31.2136C14.8867 31.7134 15.4894 32 16.1337 32H29.8662C30.5106 32 31.1133 31.7134 31.5197 31.2136C31.9282 30.7113 32.0866 30.059 31.9544 29.4238ZM19.625 18.7812C19.625 16.9203 21.139 15.4062 23 15.4062C24.861 15.4062 26.375 16.9203 26.375 18.7812C26.375 20.5849 24.9527 22.0627 23.1708 22.152C23.114 22.1509 23.057 22.1504 23 22.1504C22.9432 22.1504 22.8865 22.1509 22.8298 22.152C21.0476 22.0631 19.625 20.5852 19.625 18.7812Z" fill="white"/>
</svg>

<svg width="46" height="46" fill="none" xmlns="http://www.w3.org/2000/svg"><path fill="#4C51CC" d="M0 0h46v46H0z"/><path d="M31.954 29.424a.703.703 0 00-1.376.286.735.735 0 01-.15.616.715.715 0 01-.562.268H16.134a.715.715 0 01-.563-.268.735.735 0 01-.149-.616c.73-3.505 3.822-6.065 7.392-6.151a4.802 4.802 0 00.373 0 7.735 7.735 0 016.247 3.433.703.703 0 101.168-.783 9.146 9.146 0 00-4.74-3.6 4.777 4.777 0 001.92-3.828A4.787 4.787 0 0023 14a4.787 4.787 0 00-4.781 4.781 4.78 4.78 0 001.92 3.83 9.135 9.135 0 00-2.946 1.619 9.173 9.173 0 00-3.147 5.194A2.135 2.135 0 0016.134 32h13.732a2.135 2.135 0 002.088-2.576zM19.625 18.78A3.379 3.379 0 0123 15.406a3.379 3.379 0 013.375 3.375 3.38 3.38 0 01-3.204 3.371 8.827 8.827 0 00-.341 0 3.38 3.38 0 01-3.205-3.37z" fill="#fff"/></svg>
